assets/svg/wallet_icon_wallet_emptycoins.svg

<svg width="48" height="48" viewBox="0 0 48 48" fill="none" xmlns="http://www.w3.org/2000/svg">
<path d="M23.4986 46.1725H7.05391C4.91172 46.1725 3.16797 44.4297 3.16797 42.2866V39.0063C3.16797 30.0044 6.43328 21.325 12.3602 14.5553C16.3352 13.5653 20.5248 13.5653 24.4998 14.5553C25.6475 15.8657 26.7017 17.255 27.6545 18.7131C27.6842 18.7589 27.725 18.7965 27.7729 18.8226C27.8209 18.8486 27.8746 18.8622 27.9292 18.8622C27.9883 18.8621 28.0462 18.846 28.0968 18.8157C28.1475 18.7855 28.1891 18.7421 28.2172 18.6902C28.2453 18.6383 28.2589 18.5798 28.2566 18.5208C28.2542 18.4618 28.236 18.4045 28.2039 18.355C27.315 16.9947 26.3395 15.693 25.2836 14.4578C25.3662 14.3915 25.4327 14.3074 25.4783 14.2118C25.5239 14.1162 25.5474 14.0116 25.547 13.9056V12.85C25.547 12.5697 25.383 12.3203 25.1355 12.2059L28.4636 8.57876C29.013 7.9797 29.1817 7.16313 28.9145 6.39532C28.6473 5.62751 28.008 5.0922 27.2045 4.9647L25.7373 4.73126L25.9745 4.21376C26.1667 3.79376 26.162 3.31563 25.9614 2.89938C25.7608 2.48313 25.3895 2.1822 24.9414 2.07063L24.1183 1.8672C20.3805 0.941884 16.4308 0.945634 12.6948 1.87657L11.9205 2.0697C11.4733 2.18126 11.102 2.48313 10.9023 2.89845C10.7027 3.31376 10.698 3.79282 10.8902 4.21188L11.1283 4.7322L9.66016 4.96563C8.85672 5.09313 8.21734 5.62845 7.95016 6.39626C7.68297 7.16407 7.85078 7.98063 8.4011 8.5797L11.7292 12.2069C11.6064 12.2639 11.5024 12.3548 11.4295 12.4689C11.3565 12.583 11.3178 12.7155 11.3177 12.8509V13.9066C11.3174 14.0127 11.3411 14.1175 11.3869 14.2132C11.4326 14.309 11.4993 14.3932 11.582 14.4597C5.72676 21.2976 2.50965 30.004 2.51172 39.0063V42.2866C2.51172 44.7906 4.54891 46.8288 7.05391 46.8288H23.4986C23.6795 46.8288 23.8267 46.6816 23.8267 46.5006C23.8267 46.3197 23.6795 46.1725 23.4986 46.1725ZM24.8495 12.7966C24.8739 12.8031 24.8908 12.8247 24.8908 12.85V13.9056C24.8908 13.9281 24.8795 13.9413 24.8692 13.9488C24.8627 13.9539 24.8551 13.9575 24.8469 13.9591C24.8388 13.9607 24.8303 13.9604 24.8223 13.9581C24.3583 13.8391 23.8914 13.7341 23.4227 13.6422C23.3418 13.135 23.0816 12.6736 22.6895 12.3419C23.4142 12.4628 24.1352 12.6138 24.8495 12.7966ZM8.56609 6.61095C8.75266 6.0747 9.19891 5.70157 9.75953 5.61251L11.4086 5.35001L13.293 9.46376C13.368 9.62876 13.563 9.70095 13.728 9.62595C13.7672 9.60803 13.8025 9.58255 13.8318 9.55098C13.8611 9.5194 13.8839 9.48234 13.8989 9.44193C13.9139 9.40151 13.9207 9.35854 13.9191 9.31547C13.9174 9.2724 13.9073 9.23008 13.8892 9.19095L11.4836 3.9372C11.373 3.69626 11.3758 3.42063 11.4911 3.18157C11.6064 2.94251 11.8192 2.76907 12.077 2.70438L12.8514 2.51126C16.4833 1.60657 20.3242 1.60282 23.958 2.50188L24.7811 2.70532C25.0389 2.76907 25.2527 2.94251 25.368 3.18157C25.4833 3.42063 25.4861 3.69626 25.3755 3.9372L22.3305 10.5859C22.2944 10.6651 22.2912 10.7552 22.3214 10.8367C22.3516 10.9182 22.4128 10.9844 22.4917 11.0209C22.5358 11.0416 22.5827 11.0509 22.6286 11.0509C22.7533 11.0509 22.8723 10.9797 22.9267 10.8597L25.4505 5.34813L27.0986 5.61063C27.6592 5.6997 28.1055 6.07282 28.292 6.60907C28.4786 7.14532 28.3614 7.71438 27.978 8.13345L24.4164 12.0156C20.4855 11.1063 16.3717 11.1063 12.4408 12.0156L8.88109 8.13438C8.49766 7.71626 8.37953 7.14626 8.56609 6.61095Z" fill="#9A9A9A"/>
<path d="M44.5667 34.9787H42.2614C42.2867 34.8952 42.2998 34.8071 42.2998 34.7162V32.1746C42.2998 31.6684 41.8873 31.2559 41.3811 31.2559H29.3961C28.8898 31.2559 28.4773 31.6684 28.4773 32.1746V33.0249C28.3123 33.0127 28.1455 33.0052 27.9777 33.0052C24.1667 33.0052 21.0664 36.1055 21.0664 39.9165C21.0664 43.7274 24.1667 46.8277 27.9777 46.8277H41.382C41.8883 46.8277 42.3008 46.4152 42.3008 45.909V43.3665C42.3008 43.1359 42.2145 42.9259 42.0748 42.7646C42.2207 42.5981 42.301 42.3841 42.3008 42.1627V39.6202C42.3008 39.5293 42.2867 39.4412 42.2623 39.3577H44.5677C45.0739 39.3577 45.4864 38.9452 45.4864 38.439V35.8965C45.4855 35.3912 45.073 34.9787 44.5667 34.9787ZM29.1336 32.1746C29.1336 32.0302 29.2517 31.9121 29.3961 31.9121H41.382C41.5264 31.9121 41.6445 32.0302 41.6445 32.1746V34.7171C41.6445 34.8615 41.5273 34.9796 41.382 34.9796H32.8077C31.8223 34.0159 30.5511 33.3437 29.1345 33.1046V32.1746H29.1336ZM21.7217 39.9165C21.7217 36.4674 24.5277 33.6615 27.9767 33.6615C31.4258 33.6615 34.2317 36.4674 34.2317 39.9165C34.2317 43.3655 31.4258 46.1715 27.9767 46.1715C24.5277 46.1715 21.7217 43.3655 21.7217 39.9165ZM34.8889 39.9165C34.8889 39.729 34.8795 39.5424 34.8645 39.3587H41.382C41.5264 39.3587 41.6445 39.4768 41.6445 39.6212V42.1637C41.6445 42.308 41.5264 42.4262 41.382 42.4262H34.4155C34.7282 41.6264 34.8888 40.7752 34.8889 39.9165ZM41.6436 45.909C41.6436 46.0534 41.5255 46.1715 41.3811 46.1715H30.913C32.283 45.5245 33.4042 44.4477 34.1061 43.1049H41.3811C41.5255 43.1049 41.6436 43.223 41.6436 43.3674V45.909ZM44.8292 38.4399C44.8292 38.5843 44.7111 38.7024 44.5667 38.7024H34.7792C34.5758 37.5587 34.0902 36.5115 33.3964 35.6359H44.5667C44.7111 35.6359 44.8292 35.754 44.8292 35.8984V38.4399Z" fill="#9A9A9A"/>
<path d="M40.3613 34.3494H36.9432C36.1407 34.3494 35.3579 34.0972 34.7054 33.6294C34.231 33.2881 34.472 32.5391 35.056 32.5391H40.3604C40.4394 32.5391 40.5177 32.5546 40.5907 32.5849C40.6637 32.6151 40.7301 32.6595 40.786 32.7153C40.8419 32.7712 40.8862 32.8376 40.9165 32.9106C40.9467 32.9836 40.9623 33.0619 40.9623 33.1409V33.7484C40.9632 34.0803 40.6941 34.3494 40.3613 34.3494ZM4.92383 38.3084V41.1462C4.92383 43.0287 6.45008 44.555 8.33258 44.555H14.7985C16.4082 44.555 16.9688 42.4166 15.5663 41.6262L7.25727 36.9453C6.21383 36.3566 4.92383 37.1113 4.92383 38.3084Z" fill="#E1EAF8"/>
<path d="M28.346 39.3039H27.5951C26.9754 39.3039 26.442 38.8286 26.411 38.2098C26.3782 37.5489 26.907 36.9995 27.5613 36.9995H28.5129C29.0557 36.9995 29.5029 37.4205 29.5441 37.953C29.5479 37.9998 29.5873 38.0345 29.6341 38.0345H30.6795C30.731 38.0345 30.7732 37.9923 30.7704 37.9417C30.7226 36.7642 29.7691 35.8173 28.5907 35.7761V34.742C28.5907 34.6914 28.5504 34.6511 28.4998 34.6511H27.4563C27.4057 34.6511 27.3654 34.6914 27.3654 34.742V35.7827C26.1345 35.8839 25.166 36.9245 25.1838 38.1845C25.2016 39.4923 26.3032 40.5283 27.611 40.5283H28.362C28.9816 40.5283 29.5151 41.0036 29.546 41.6223C29.5788 42.2833 29.0501 42.8317 28.3957 42.8317H27.4441C26.9013 42.8317 26.4541 42.4108 26.4129 41.8783C26.411 41.8558 26.4007 41.8349 26.384 41.8198C26.3673 41.8046 26.3454 41.7964 26.3229 41.7967H25.2776C25.226 41.7967 25.1838 41.8389 25.1866 41.8905C25.2345 43.068 26.1879 44.0148 27.3663 44.0561V45.0902C27.3663 45.1408 27.4066 45.1811 27.4573 45.1811H28.5007C28.5513 45.1811 28.5916 45.1408 28.5916 45.0902V44.0495C29.8226 43.9483 30.791 42.9077 30.7732 41.6477C30.7554 40.3398 29.6548 39.3039 28.346 39.3039ZM44.0951 19.982L42.2313 19.713C42.1404 19.6998 42.0673 19.6333 42.0429 19.5452C41.8915 18.9972 41.673 18.4701 41.3923 17.9758C41.3473 17.8961 41.352 17.7977 41.4063 17.7245L42.5341 16.2152C42.6373 16.0773 42.6232 15.8852 42.5013 15.7633L41.007 14.2689C40.9481 14.2101 40.8701 14.1745 40.7871 14.1685C40.7042 14.1625 40.6218 14.1865 40.5551 14.2361L39.0457 15.3639C38.9726 15.4192 38.8741 15.4239 38.7945 15.378C38.3003 15.0969 37.7732 14.8783 37.2251 14.7273C37.1818 14.7157 37.1429 14.6916 37.1131 14.6581C37.0833 14.6247 37.0639 14.5832 37.0573 14.5389L36.7882 12.6752C36.7764 12.5929 36.7353 12.5176 36.6724 12.4631C36.6096 12.4087 36.5292 12.3788 36.446 12.3789H34.3329C34.1613 12.3789 34.0151 12.5055 33.9907 12.6752L33.7216 14.5389C33.7085 14.6298 33.642 14.703 33.5538 14.7264C33.0059 14.8778 32.4788 15.0963 31.9845 15.377C31.9048 15.422 31.8063 15.4173 31.7332 15.363L30.2238 14.2352C30.1572 14.1853 30.0748 14.1612 29.9918 14.1672C29.9088 14.1732 29.8307 14.209 29.772 14.268L28.2776 15.7623C28.2188 15.8212 28.1832 15.8992 28.1772 15.9822C28.1711 16.0651 28.1951 16.1475 28.2448 16.2142L29.3726 17.7236C29.4279 17.7967 29.4326 17.8952 29.3866 17.9748C29.1056 18.469 28.887 18.9962 28.736 19.5442C28.7116 19.6323 28.6385 19.6989 28.5476 19.712L26.6838 19.9811C26.6015 19.9929 26.5262 20.034 26.4718 20.0969C26.4174 20.1597 26.3875 20.2401 26.3876 20.3233V22.4364C26.3876 22.608 26.5141 22.7542 26.6838 22.7786L28.5476 23.0477C28.6385 23.0608 28.7116 23.1273 28.736 23.2155C28.8874 23.7634 29.106 24.2905 29.3866 24.7848C29.4316 24.8645 29.427 24.963 29.3726 25.0361L28.2448 26.5455C28.1416 26.6833 28.1557 26.8755 28.2776 26.9973L29.772 28.4917C29.8938 28.6136 30.086 28.6277 30.2238 28.5245L31.7332 27.3967C31.8063 27.3414 31.9048 27.3367 31.9845 27.3827C32.4786 27.6637 33.0058 27.8823 33.5538 28.0333C33.642 28.0577 33.7085 28.1308 33.7216 28.2217L33.9907 30.0855C34.0025 30.1678 34.0436 30.2431 34.1065 30.2975C34.1694 30.3519 34.2497 30.3818 34.3329 30.3817H36.446C36.6176 30.3817 36.7638 30.2552 36.7882 30.0855L37.0573 28.2217C37.0704 28.1308 37.137 28.0577 37.2251 28.0333C37.773 27.8819 38.3001 27.6633 38.7945 27.3827C38.8741 27.3377 38.9726 27.3423 39.0457 27.3967L40.5551 28.5245C40.6929 28.6277 40.8851 28.6136 41.007 28.4917L42.5013 26.9973C42.6232 26.8755 42.6373 26.6833 42.5341 26.5455L41.4063 25.0361C41.351 24.963 41.3463 24.8645 41.3923 24.7848C41.6734 24.2907 41.8919 23.7635 42.0429 23.2155C42.0673 23.1273 42.1404 23.0608 42.2313 23.0477L44.0951 22.7786C44.1774 22.7668 44.2527 22.7257 44.3071 22.6628C44.3615 22.5999 44.3914 22.5196 44.3913 22.4364V20.3233C44.3923 20.1527 44.2657 20.0064 44.0951 19.982ZM35.3904 26.1827C32.7382 26.1827 30.5885 24.033 30.5885 21.3808C30.5885 18.7286 32.7382 16.5789 35.3904 16.5789C38.0426 16.5789 40.1923 18.7286 40.1923 21.3808C40.1923 24.033 38.0426 26.1827 35.3904 26.1827Z" fill="#0166FF"/>
</svg>

<svg xmlns="http://www.w3.org/2000/svg" width="48" height="48" fill="none"><path fill="#9A9A9A" d="M23.499 46.173H7.054a3.89 3.89 0 0 1-3.886-3.886v-3.28a37.1 37.1 0 0 1 9.192-24.452c3.975-.99 8.165-.99 12.14 0a37 37 0 0 1 3.154 4.158.328.328 0 1 0 .55-.358 38 38 0 0 0-2.92-3.897.7.7 0 0 0 .263-.552V12.85a.71.71 0 0 0-.412-.644l3.329-3.627c.549-.6.718-1.416.45-2.184a2.14 2.14 0 0 0-1.71-1.43l-1.467-.234.238-.517a1.54 1.54 0 0 0-.014-1.315 1.54 1.54 0 0 0-1.02-.828l-.823-.204a23.8 23.8 0 0 0-11.423.01l-.774.193a1.541 1.541 0 0 0-1.03 2.142l.237.52-1.468.234a2.14 2.14 0 0 0-1.71 1.43c-.267.768-.1 1.585.451 2.184l3.328 3.627a.71.71 0 0 0-.411.644v1.056a.7.7 0 0 0 .264.553 37.73 37.73 0 0 0-9.07 24.546v3.28a4.547 4.547 0 0 0 4.542 4.543h16.445a.329.329 0 0 0 0-.657m1.35-33.376a.055.055 0 0 1 .042.053v1.056a.05.05 0 0 1-.022.043.05.05 0 0 1-.047.01q-.696-.18-1.4-.317a2.15 2.15 0 0 0-.733-1.3q1.088.18 2.16.455M8.566 6.61c.187-.536.633-.91 1.194-.998l1.649-.263 1.884 4.114a.328.328 0 1 0 .596-.273l-2.405-5.254a.887.887 0 0 1 .593-1.233l.774-.193a23.14 23.14 0 0 1 11.107-.01l.823.204a.885.885 0 0 1 .595 1.232l-3.046 6.649a.33.33 0 0 0 .299.465.33.33 0 0 0 .298-.191l2.524-5.512 1.648.263c.56.089 1.006.462 1.193.998s.07 1.105-.314 1.524l-3.562 3.883c-3.93-.91-8.044-.91-11.975 0L8.88 8.134a1.5 1.5 0 0 1-.315-1.523"/><path fill="#9A9A9A" d="M44.567 34.979H42.26a1 1 0 0 0 .039-.263v-2.541a.92.92 0 0 0-.919-.92H29.396a.92.92 0 0 0-.919.92v.85a6.919 6.919 0 0 0-7.41 6.892c0 3.81 3.1 6.91 6.91 6.91h13.405a.92.92 0 0 0 .919-.918v-2.542c0-.231-.087-.441-.226-.602a.9.9 0 0 0 .226-.602V39.62a1 1 0 0 0-.039-.262h2.306a.92.92 0 0 0 .918-.919v-2.542a.92.92 0 0 0-.92-.918m-15.433-2.804c0-.145.118-.263.262-.263h11.986c.144 0 .263.118.263.263v2.542a.263.263 0 0 1-.263.263h-8.574a6.9 6.9 0 0 0-3.674-1.875zm-7.412 7.742a6.26 6.26 0 0 1 6.255-6.256 6.26 6.26 0 0 1 6.255 6.255 6.26 6.26 0 0 1-6.255 6.256 6.26 6.26 0 0 1-6.255-6.255m13.167 0q-.001-.283-.025-.558h6.518c.144 0 .263.118.263.262v2.543a.263.263 0 0 1-.263.262h-6.966c.312-.8.473-1.65.473-2.51m6.755 5.992a.263.263 0 0 1-.263.263H30.913a6.95 6.95 0 0 0 3.193-3.067h7.275c.145 0 .263.118.263.262zm3.185-7.47a.263.263 0 0 1-.262.263h-9.788a6.9 6.9 0 0 0-1.383-3.066h11.17c.145 0 .263.118.263.262z"/><path fill="#E1EAF8" d="M40.361 34.35h-3.418a3.84 3.84 0 0 1-2.238-.72c-.474-.342-.233-1.09.351-1.09h5.304a.6.6 0 0 1 .602.6v.608a.6.6 0 0 1-.6.601M4.924 38.307v2.838a3.41 3.41 0 0 0 3.409 3.409h6.466c1.61 0 2.17-2.138.767-2.929l-8.309-4.68a1.565 1.565 0 0 0-2.333 1.362"/><path fill="#0166FF" d="M28.346 39.304h-.75c-.62 0-1.154-.475-1.185-1.094a1.154 1.154 0 0 1 1.15-1.21h.952c.543 0 .99.42 1.031.953a.09.09 0 0 0 .09.081h1.046a.09.09 0 0 0 .09-.092 2.264 2.264 0 0 0-2.18-2.166v-1.034a.09.09 0 0 0-.09-.09h-1.044a.09.09 0 0 0-.09.09v1.04a2.38 2.38 0 0 0-2.182 2.403c.018 1.307 1.12 2.343 2.427 2.343h.751c.62 0 1.153.476 1.184 1.094a1.153 1.153 0 0 1-1.15 1.21h-.952c-.543 0-.99-.421-1.031-.954a.09.09 0 0 0-.09-.081h-1.045a.09.09 0 0 0-.091.094 2.264 2.264 0 0 0 2.18 2.165v1.034c0 .05.04.091.09.091h1.044c.05 0 .09-.04.09-.09V44.05a2.38 2.38 0 0 0 2.182-2.402c-.018-1.308-1.118-2.344-2.427-2.344m15.75-19.322-1.865-.269a.23.23 0 0 1-.188-.168 7 7 0 0 0-.65-1.57.23.23 0 0 1 .013-.25l1.128-1.51a.346.346 0 0 0-.033-.452l-1.494-1.494a.346.346 0 0 0-.452-.033l-1.51 1.128a.23.23 0 0 1-.25.014 6.9 6.9 0 0 0-1.57-.65.23.23 0 0 1-.168-.19l-.269-1.863a.346.346 0 0 0-.342-.296h-2.113a.346.346 0 0 0-.342.296l-.27 1.864a.23.23 0 0 1-.167.187 7 7 0 0 0-1.57.651.23.23 0 0 1-.25-.014l-1.51-1.128a.345.345 0 0 0-.452.033l-1.494 1.494a.346.346 0 0 0-.033.452l1.128 1.51c.055.073.06.171.014.25a6.9 6.9 0 0 0-.651 1.57.23.23 0 0 1-.188.168l-1.864.27a.345.345 0 0 0-.296.341v2.113c0 .172.126.318.296.343l1.864.269a.23.23 0 0 1 .188.168c.151.547.37 1.075.65 1.569a.23.23 0 0 1-.013.251l-1.128 1.51a.345.345 0 0 0 .033.451l1.494 1.495a.345.345 0 0 0 .452.032l1.51-1.127a.23.23 0 0 1 .25-.014c.495.28 1.022.5 1.57.65a.23.23 0 0 1 .168.189l.269 1.863a.345.345 0 0 0 .342.297h2.113a.346.346 0 0 0 .342-.297l.27-1.863a.23.23 0 0 1 .167-.189 7 7 0 0 0 1.57-.65.23.23 0 0 1 .25.014l1.51 1.128c.138.103.33.089.452-.033l1.494-1.495a.345.345 0 0 0 .033-.451l-1.128-1.51a.23.23 0 0 1-.014-.251c.281-.494.5-1.021.65-1.57a.23.23 0 0 1 .19-.167l1.863-.27a.345.345 0 0 0 .296-.342v-2.113a.344.344 0 0 0-.296-.341m-8.706 6.2a4.802 4.802 0 1 1 0-9.603 4.802 4.802 0 0 1 0 9.604"/></svg>
